PortableApps/LibreOfficePortable/App/libreoffice/help/media/icon-themes/cmd/lc_hidedetail.svg

<svg viewBox="0 0 24 24" xmlns="http://www.w3.org/2000/svg"><path d="m10.5 2c-.277 0-.5.223-.5.5s.223.5.5.5h10c.277 0 .5-.223.5-.5s-.223-.5-.5-.5zm0 3c-.277 0-.5.223-.5.5s.223.5.5.5h10c.277 0 .5-.223.5-.5s-.223-.5-.5-.5zm2 5c-.277 0-.5.223-.5.5s.223.5.5.5h8c.277 0 .5-.223.5-.5s-.223-.5-.5-.5zm0 3c-.277 0-.5.223-.5.5s.223.5.5.5h8c.277 0 .5-.223.5-.5s-.223-.5-.5-.5zm-2 5c-.277 0-.5.223-.5.5s.223.5.5.5h10c.277 0 .5-.223.5-.5s-.223-.5-.5-.5zm0 3c-.277 0-.5.223-.5.5s.223.5.5.5h10c.277 0 .5-.223.5-.5s-.223-.5-.5-.5z" fill="#808080"/><path d="m2 11h8v2h-8z" fill="#e68497"/></svg>

<svg viewBox="0 0 24 24" xmlns="http://www.w3.org/2000/svg">
  <path
     style="fill:#808080"
     d="M 10.5,2 C 10.223,2 10,2.223 10,2.5 10,2.777 10.223,3 10.5,3 h 10 C 20.777,3 21,2.777 21,2.5 21,2.223 20.777,2 20.5,2 Z m 0,3 C 10.223,5 10,5.223 10,5.5 10,5.777 10.223,6 10.5,6 h 10 C 20.777,6 21,5.777 21,5.5 21,5.223 20.777,5 20.5,5 Z m 2,5 c -0.277,0 -0.5,0.223 -0.5,0.5 0,0.277 0.223,0.5 0.5,0.5 h 8 C 20.777,11 21,10.777 21,10.5 21,10.223 20.777,10 20.5,10 Z m 0,3 c -0.277,0 -0.5,0.223 -0.5,0.5 0,0.277 0.223,0.5 0.5,0.5 h 8 C 20.777,14 21,13.777 21,13.5 21,13.223 20.777,13 20.5,13 Z m -2,5 c -0.277,0 -0.5,0.223 -0.5,0.5 0,0.277 0.223,0.5 0.5,0.5 h 10 C 20.777,19 21,18.777 21,18.5 21,18.223 20.777,18 20.5,18 Z m 0,3 c -0.277,0 -0.5,0.223 -0.5,0.5 0,0.277 0.223,0.5 0.5,0.5 h 10 C 20.777,22 21,21.777 21,21.5 21,21.223 20.777,21 20.5,21 Z"
     />
  <path
     style="fill:#e68497"
     d="m 2,11 h 8 v 2 H 2 Z"
     />
</svg>
